X:1
T:Jingle bells THIS ONE
T:Jingle bells THIS ONE
%%score { 1 | 2 }
L:1/8
M:4/4
K:C
V:1 treble nm="Piano" snm="Pno."
V:2 bass 
V:1
 E2 E2 E4 | E2 E2 E4 | E2 G2 C2 D2 | E8 | F2 F2 F2 F2 | F2 E2 E2 EE | E2 D2 D2 E2 | D4 G4 | %8
 E2 E2 E4 | E2 E2 E4 | E2 G2 C2 D2 | E8 | F2 F2 F2 F2 | F2 E2 E2 EE | G2 G2 F2 D2 | C8 |] %16
V:2
 [G,,C,E,]8 | [G,,C,E,]8 | [G,,C,E,]8 | [G,,C,E,]8 | [A,,C,F,]8 | [G,,C,E,]8 | [G,,B,,D,]8 | %7
 [G,,B,,D,]8 | [G,,C,E,]8 | [G,,C,E,]8 | [G,,C,E,]8 | [G,,C,E,]8 | [A,,C,F,]8 | [G,,C,E,]8 | %14
 [G,,B,,D,]8 | [G,,C,E,]8 |] %16

